X:3344
T:Connie O'Connell's
R:jig
D:Matt Molloy & Sean Keane: Contentment is Wealth
D:Dervish: The Boys of Sligo
Z:id:hn-jig-165
M:6/8
K:G
A|BGG ADD|BdB BAG|BGG ADD|GAG GED|BGG ADD|BAB ABc|dge f2d|cAF G2:|
|:F|GBd ~g3|fed cAF|GBd ~g3|faf ~g3|faf g2e|fed cAG|~B3 BAG|BdB cA:|
|:F|G2B ~B2d|cAA dcA|GBB BAG|BdB cAF|GBB ~B2d|cAA ABc|dge f2d|cAF G2:|
"Variation of 1st part"
A|BGG Add|B/c/dB BAG|BGG AFD|GAG GED|BGG Add|BdB ABc|dge fed|cAF G2:|


